svg/fluentui-system-icons/ic_fluent_add_square_multiple_20_filled.svg

<svg width="20" height="20" viewBox="0 0 20 20" fill="none" xmlns="http://www.w3.org/2000/svg">
<path d="M16 5.26758C16.5978 5.61339 17 6.25973 17 7.00001V13C17 15.2091 15.2091 17 13 17H7C6.25972 17 5.61337 16.5978 5.26756 16H13C14.6569 16 16 14.6569 16 13V5.26758ZM15 5C15 3.89543 14.1046 3 13 3L5 3C3.89543 3 3 3.89543 3 5L3 13C3 14.1046 3.89543 15 5 15H13C14.1046 15 15 14.1046 15 13V5ZM12 8.99999C12 9.27614 11.7761 9.49999 11.5 9.49999L9.5 9.49999V11.5C9.5 11.7761 9.27614 12 9 12C8.72386 12 8.5 11.7761 8.5 11.5V9.49999H6.5C6.22386 9.49999 6 9.27614 6 8.99999C6 8.72385 6.22386 8.49999 6.5 8.49999H8.5L8.5 6.5C8.5 6.22385 8.72386 6 9 6C9.27614 6 9.5 6.22385 9.5 6.5L9.5 8.49999L11.5 8.5C11.7761 8.5 12 8.72385 12 8.99999Z" fill="#212121"/>
</svg>

<svg xmlns="http://www.w3.org/2000/svg" width="20" height="20"><path d="M16 5.268A2 2 0 0 1 17 7v6a4 4 0 0 1-4 4H7a2 2 0 0 1-1.732-1H13a3 3 0 0 0 3-3V5.268ZM15 5a2 2 0 0 0-2-2H5a2 2 0 0 0-2 2v8a2 2 0 0 0 2 2h8a2 2 0 0 0 2-2V5Zm-3 4a.5.5 0 0 1-.5.5h-2v2a.5.5 0 0 1-1 0v-2h-2a.5.5 0 1 1 0-1h2v-2a.5.5 0 1 1 1 0v2h2a.5.5 0 0 1 .5.5Z"/></svg>
